src/Images/Logo_White.svg

<svg fill="none" height="40" viewBox="0 0 122 40" width="122" xmlns="http://www.w3.org/2000/svg"><g fill="#fff"><path d="m11.6445 20.0984-6.51665 6.6636v9.3505h-5.12785v-36.1125h5.12785v20.2058l19.44305-20.2058h5.8757l-15.2767 16.2292 16.345 19.8833h-5.9825z"/><path d="m68.9054 33.2107 2.0298-3.8692c2.3503 1.6121 5.9825 2.7944 9.5079 2.7944 4.5937 0 6.4098-1.3972 6.4098-3.7617 0-6.1263-17.1997-.8598-17.1997-11.7151 0-4.944 4.3801-8.16832 11.324-8.16832 3.5254 0 7.585.9673 9.9352 2.47202l-2.1366 3.8692c-2.4571-1.6122-5.1278-2.1496-7.7986-2.1496-4.2732 0-6.4098 1.6122-6.4098 3.7617 0 6.4487 17.1997 1.1823 17.1997 11.8226 0 4.944-4.4869 8.0608-11.7513 8.0608-4.3801.1075-8.8669-1.2897-11.1104-3.1168z"/><path d="m122 19.5609v16.5516h-4.701v-3.6543c-1.602 2.472-4.7 3.8692-8.973 3.8692-6.196 0-10.0423-3.3318-10.0423-8.0608 0-4.4066 2.7773-7.9534 10.8963-7.9534h7.799v-.9673c0-4.1916-2.457-6.5561-7.264-6.5561-3.205 0-6.517 1.1822-8.654 2.9019l-2.0295-3.7618c2.7775-2.25699 6.8375-3.54672 11.2175-3.54672 7.585.10748 11.751 3.76172 11.751 11.17772zm-4.914 8.1683v-3.8692h-7.585c-4.914 0-6.303 1.9346-6.303 4.1916 0 2.687 2.243 4.4066 5.982 4.4066 3.739.1075 6.731-1.5047 7.906-4.729z"/><path d="m53.0946 28.9118v7.3085l3.0981-1.8272v-7.3084z"/><path d="m61.641 19.9909-12.7128-7.416-7.0508-4.08412-6.9439 12.14502.1068 11.3926 12.6059 7.416 1.282-.7523v-10.7478l5.662-9.9955 5.7688 3.3318v10.7478l1.282-.7523z"/></g></svg>

<svg width="122" height="40" viewBox="0 0 122 40" fill="none" xmlns="http://www.w3.org/2000/svg">
<path d="M11.6445 20.0984L5.12785 26.762V36.1125H0V0H5.12785V20.2058L24.5709 0H30.4466L15.1699 16.2292L31.5149 36.1125H25.5324L11.6445 20.0984Z" fill="white"/>
<path d="M68.9054 33.2107L70.9352 29.3415C73.2855 30.9536 76.9177 32.1359 80.4431 32.1359C85.0368 32.1359 86.8529 30.7387 86.8529 28.3742C86.8529 22.2479 69.6532 27.5144 69.6532 16.6591C69.6532 11.7151 74.0333 8.49078 80.9772 8.49078C84.5026 8.49078 88.5622 9.45808 90.9124 10.9628L88.7758 14.832C86.3187 13.2198 83.648 12.6824 80.9772 12.6824C76.704 12.6824 74.5674 14.2946 74.5674 16.4441C74.5674 22.8928 91.7671 17.6264 91.7671 28.2667C91.7671 33.2107 87.2802 36.3275 80.0158 36.3275C75.6357 36.435 71.1489 35.0378 68.9054 33.2107Z" fill="white"/>
<path d="M122 19.5609V36.1125H117.299V32.4582C115.697 34.9302 112.599 36.3274 108.326 36.3274C102.13 36.3274 98.2837 32.9956 98.2837 28.2666C98.2837 23.86 101.061 20.3132 109.18 20.3132H116.979V19.3459C116.979 15.1543 114.522 12.7898 109.715 12.7898C106.51 12.7898 103.198 13.972 101.061 15.6917L99.0315 11.9299C101.809 9.67291 105.869 8.38318 110.249 8.38318C117.834 8.49066 122 12.1449 122 19.5609ZM117.086 27.7292V23.86H109.501C104.587 23.86 103.198 25.7946 103.198 28.0516C103.198 30.7386 105.441 32.4582 109.18 32.4582C112.919 32.5657 115.911 30.9535 117.086 27.7292Z" fill="white"/>
<path d="M53.0946 28.9118V36.2203L56.1927 34.3931V27.0847L53.0946 28.9118Z" fill="white"/>
<path d="M61.641 19.9909L48.9282 12.5749L41.8774 8.49078L34.9335 20.6358L35.0403 32.0284L47.6462 39.4444L48.9282 38.6921V27.9443L54.5902 17.9488L60.359 21.2806V32.0284L61.641 31.2761V19.9909Z" fill="white"/>
</svg>
